icons/tokens/0x221657776846890989a759BA2973e427DfF5C9bB/logo.svg

<svg width="32" height="32" viewBox="0 0 32 32" fill="none" xmlns="http://www.w3.org/2000/svg">
<path fill-rule="evenodd" clip-rule="evenodd" d="M32 16C32 7.17152 24.8285 0 16 0C7.17152 0 0 7.17152 0 16C0 24.8285 7.17152 32 16 32C24.8285 32 32 24.8285 32 16Z" fill="url(#paint0_linear)"/>
<path fill-rule="evenodd" clip-rule="evenodd" d="M25.9853 20.096C25.2752 18.9098 24.5651 17.7235 23.855 16.5373C23.776 16.4048 23.6029 16.3654 23.4713 16.4458C23.0035 16.7318 22.5421 17.0278 22.0867 17.3338C21.9638 17.4163 21.9222 17.5786 21.999 17.7066C22.4051 18.3834 22.8105 19.0605 23.2157 19.7379C23.2525 19.8 23.2339 19.8842 23.1718 19.9245C20.8131 21.4509 18.4477 22.9674 16.0758 24.4736C16.0313 24.5018 15.9737 24.5027 15.9299 24.4736C13.5917 22.9139 11.2253 21.3974 8.83037 19.9245C8.76733 19.8858 8.74973 19.8038 8.78653 19.7379C9.16989 19.048 9.57533 18.3709 10.0032 17.7066C10.0838 17.5811 10.0397 17.4141 9.91549 17.3338C9.45501 17.0358 8.99357 16.7398 8.53053 16.4458C8.39901 16.3622 8.22749 16.4019 8.14685 16.5373C7.44029 17.7254 6.73021 18.9117 6.01661 20.096C5.86269 20.3517 5.94365 20.6806 6.19229 20.8378C9.37437 22.8506 12.5449 24.8822 15.7033 26.9325C15.8825 27.049 16.1161 27.0496 16.295 26.9325C19.4477 24.8736 22.6182 22.8419 25.8064 20.8378C26.0579 20.6797 26.135 20.352 25.9853 20.096Z" fill="white"/>
<path fill-rule="evenodd" clip-rule="evenodd" d="M9.64126 14.5568C10.103 14.8528 10.5645 15.1488 11.0262 15.4448C11.1574 15.529 11.3296 15.4886 11.4099 15.3533C12.8944 12.8563 14.3853 10.3632 15.8822 7.87392C15.9357 7.78528 16.0649 7.78624 16.1161 7.87392C17.5808 10.383 19.0729 12.8762 20.592 15.3533C20.6726 15.4848 20.8441 15.5251 20.9757 15.4448C21.4435 15.1587 21.9053 14.8627 22.3606 14.5568C22.4835 14.4742 22.5251 14.312 22.4483 14.184C20.6627 11.207 18.8809 8.22784 17.1027 5.24672C17.0035 5.08032 16.8249 4.97984 16.6313 4.97984C16.2112 4.97984 15.791 4.97984 15.3705 4.97984C15.1769 4.97984 14.9981 5.08224 14.8992 5.24672C13.1129 8.22304 11.3309 11.2022 9.55358 14.184C9.47742 14.3123 9.5171 14.4765 9.64126 14.5568Z" fill="#2AE7A8"/>
<defs>
<linearGradient id="paint0_linear" x1="-4.70182" y1="-9.40365" x2="-4.70182" y2="32" gradientUnits="userSpaceOnUse">
<stop stop-color="#0E0E21"/>
<stop offset="1" stop-color="#1A1A4D"/>
</linearGradient>
</defs>
</svg>

<svg width="32" height="32" fill="none" xmlns="http://www.w3.org/2000/svg"><path fill-rule="evenodd" clip-rule="evenodd" d="M32 16c0-8.828-7.172-16-16-16S0 7.172 0 16s7.172 16 16 16 16-7.172 16-16z" fill="url(#paint0_linear)"/><path fill-rule="evenodd" clip-rule="evenodd" d="M25.985 20.096l-2.13-3.559a.278.278 0 00-.384-.091c-.468.286-.929.582-1.384.888a.277.277 0 00-.088.373l1.217 2.03a.14.14 0 01-.044.188 981.477 981.477 0 01-7.096 4.549.135.135 0 01-.146 0 228.577 228.577 0 00-7.1-4.55.138.138 0 01-.043-.186c.383-.69.788-1.367 1.216-2.031a.272.272 0 00-.088-.373c-.46-.298-.921-.594-1.384-.888a.273.273 0 00-.384.091 717.462 717.462 0 01-2.13 3.559.545.545 0 00.175.742 959.086 959.086 0 019.511 6.095c.18.116.413.117.592 0a651.496 651.496 0 019.511-6.095.547.547 0 00.18-.742z" fill="#fff"/><path fill-rule="evenodd" clip-rule="evenodd" d="M9.641 14.557l1.385.888a.272.272 0 00.384-.092c1.484-2.497 2.975-4.99 4.472-7.48a.136.136 0 01.234 0 401.346 401.346 0 004.476 7.48c.08.132.252.172.384.092.468-.286.93-.582 1.385-.888a.277.277 0 00.087-.373 4270.27 4270.27 0 01-5.345-8.937.547.547 0 00-.472-.267h-1.26a.55.55 0 00-.472.267 3436.463 3436.463 0 00-5.345 8.937.276.276 0 00.087.373z" fill="#2AE7A8"/><defs><linearGradient id="paint0_linear" x1="-4.702" y1="-9.404" x2="-4.702" y2="32" gradientUnits="userSpaceOnUse"><stop stop-color="#0E0E21"/><stop offset="1" stop-color="#1A1A4D"/></linearGradient></defs></svg>
